tools/download-figma-icons/icons/solid/construction.svg

<svg width="24" height="24" viewBox="0 0 24 24" fill="none" xmlns="http://www.w3.org/2000/svg">
<path fill-rule="evenodd" clip-rule="evenodd" d="M22.4995 11.5626L21.3101 12.7499H19.4996H19.1906L22.4995 9.43717V11.5626ZM13.9347 12.7499L18.4346 8.24996H19.4996H20.5646L16.0647 12.7499H13.9347ZM8.68484 12.7499L13.1847 8.24996H15.3147L10.8148 12.7499H8.68484ZM7.94235 8.24996H10.0573L5.55739 12.7499H4.49992H3.44244L7.94235 8.24996ZM1.49997 9.43569L2.68495 8.24996H4.49991H4.8149L1.49997 11.5649V9.43569ZM5.62489 1.5001C6.65911 1.5001 7.49985 2.34158 7.49985 3.37506C7.49985 4.40929 6.65911 5.25002 5.62489 5.25002C4.59066 5.25002 3.74992 4.40929 3.74992 3.37506C3.74992 2.34158 4.59066 1.5001 5.62489 1.5001ZM18.3746 1.5001C19.4089 1.5001 20.2496 2.34158 20.2496 3.37506C20.2496 4.40929 19.4089 5.25002 18.3746 5.25002C17.3404 5.25002 16.4997 4.40929 16.4997 3.37506C16.4997 2.34158 17.3404 1.5001 18.3746 1.5001ZM23.2495 6.74986H22.0646H20.2496V6.17912C21.1533 5.57239 21.7496 4.54266 21.7496 3.37493C21.7496 1.51422 20.2353 0 18.3746 0C16.5139 0 14.9997 1.51422 14.9997 3.37493C14.9997 4.54266 15.5959 5.57239 16.4997 6.17912V6.74986H14.6847H11.5573H9.44231H7.49985V6.17912C8.40358 5.57239 8.99982 4.54266 8.99982 3.37493C8.99982 1.51422 7.4856 0 5.62489 0C3.76417 0 2.24995 1.51422 2.24995 3.37493C2.24995 4.54266 2.84619 5.57239 3.74992 6.17912V6.74986H0.749985C0.335243 6.74986 0 7.08586 0 7.49985V10.9355V13.0647V13.4997C0 13.9145 0.335243 14.2497 0.749985 14.2497H1.94246H3.74992V23.2495C3.74992 23.6643 4.08517 23.9995 4.49991 23.9995H6.74986C7.1646 23.9995 7.49985 23.6643 7.49985 23.2495V14.2497H9.31481H12.4347H14.5647H16.4997V23.2495C16.4997 23.6643 16.8349 23.9995 17.2496 23.9995H19.4996C19.9143 23.9995 20.2496 23.6643 20.2496 23.2495V14.2497H23.2495C23.6643 14.2497 23.9995 13.9145 23.9995 13.4997V10.0648V7.93559V7.49985C23.9995 7.08586 23.6643 6.74986 23.2495 6.74986Z" fill="black"/>
</svg>

<svg xmlns="http://www.w3.org/2000/svg" width="24" height="24" fill="none" viewBox="0 0 24 24"><path fill="currentColor" fill-rule="evenodd" d="m22.5 11.563-1.19 1.187h-2.12l3.31-3.313zm-8.565 1.187 4.5-4.5h2.13l-4.5 4.5zm-5.25 0 4.5-4.5h2.13l-4.5 4.5zm-.743-4.5h2.115l-4.5 4.5H3.442zM1.5 9.436 2.685 8.25h2.13L1.5 11.565zM5.625 1.5c1.034 0 1.875.842 1.875 1.875 0 1.034-.84 1.875-1.875 1.875A1.877 1.877 0 0 1 3.75 3.375c0-1.033.84-1.875 1.875-1.875m12.75 0c1.034 0 1.875.842 1.875 1.875a1.877 1.877 0 0 1-1.875 1.875A1.877 1.877 0 0 1 16.5 3.375c0-1.033.84-1.875 1.875-1.875m4.875 5.25h-3v-.57a3.37 3.37 0 0 0 1.5-2.805A3.38 3.38 0 0 0 18.375 0 3.374 3.374 0 0 0 16.5 6.18v.57h-9v-.57A3.37 3.37 0 0 0 9 3.374 3.38 3.38 0 0 0 5.625 0 3.38 3.38 0 0 0 2.25 3.375c0 1.168.596 2.197 1.5 2.804v.57h-3A.75.75 0 0 0 0 7.5v6c0 .415.335.75.75.75h3v9c0 .414.335.75.75.75h2.25a.75.75 0 0 0 .75-.75v-9h9v9c0 .414.335.75.75.75h2.25a.75.75 0 0 0 .75-.75v-9h3a.75.75 0 0 0 .75-.75v-6a.75.75 0 0 0-.75-.75" clip-rule="evenodd"/></svg>
